assets/icons/qvision/filter_frames.svg

<svg xmlns="http://www.w3.org/2000/svg" height="24" viewBox="0 0 24 24" width="24"><path d="M0 0h24v24H0z" fill="none"/><path d="M20 4h-4l-4-4-4 4H4c-1.1 0-2 .9-2 2v14c0 1.1.9 2 2 2h16c1.1 0 2-.9 2-2V6c0-1.1-.9-2-2-2zm0 16H4V6h4.52l3.52-3.5L15.52 6H20v14zM18 8H6v10h12"/></svg>

<svg width="24" height="24" viewBox="0 0 24 24" fill="none" xmlns="http://www.w3.org/2000/svg">
<g clip-path="url(#clip0_147_3443)">
<path d="M20 4H16L12 0L8 4H4C2.9 4 2 4.9 2 6V20C2 21.1 2.9 22 4 22H20C21.1 22 22 21.1 22 20V6C22 4.9 21.1 4 20 4ZM20 20H4V6H8.52L12.04 2.5L15.52 6H20V20ZM18 8H6V18H18" fill="#323232"/>
</g>
<defs>
<clipPath id="clip0_147_3443">
<rect width="24" height="24" fill="white"/>
</clipPath>
</defs>
</svg>
